svg/camera.svg

<svg width="24" height="24" viewBox="0 0 24 24" fill="none" xmlns="http://www.w3.org/2000/svg">
<path d="M8.29289 4.29289C8.48043 4.10536 8.73478 4 9 4H15C15.2652 4 15.5196 4.10536 15.7071 4.29289L17.4142 6H20C21.1046 6 22 6.89543 22 8V18C22 19.1046 21.1046 20 20 20H4C2.89543 20 2 19.1046 2 18V8C2 6.89543 2.89543 6 4 6H6.58579L8.29289 4.29289ZM9.41421 6L7.70711 7.70711C7.51957 7.89464 7.26522 8 7 8L4 8V18H20V8H17C16.7348 8 16.4804 7.89464 16.2929 7.70711L14.5858 6H9.41421ZM12 10.5C10.8954 10.5 10 11.3954 10 12.5C10 13.6046 10.8954 14.5 12 14.5C13.1046 14.5 14 13.6046 14 12.5C14 11.3954 13.1046 10.5 12 10.5ZM8 12.5C8 10.2909 9.79086 8.5 12 8.5C14.2091 8.5 16 10.2909 16 12.5C16 14.7091 14.2091 16.5 12 16.5C9.79086 16.5 8 14.7091 8 12.5Z" fill="#0D0D0D"/>
</svg>

<svg width="24" height="24" fill="none" xmlns="http://www.w3.org/2000/svg"><path d="M8.293 4.293A1 1 0 019 4h6a1 1 0 01.707.293L17.414 6H20a2 2 0 012 2v10a2 2 0 01-2 2H4a2 2 0 01-2-2V8a2 2 0 012-2h2.586l1.707-1.707zM9.414 6L7.707 7.707A1 1 0 017 8H4v10h16V8h-3a1 1 0 01-.707-.293L14.586 6H9.414zM12 10.5a2 2 0 100 4 2 2 0 000-4zm-4 2a4 4 0 118 0 4 4 0 01-8 0z" fill="#0D0D0D"/></svg>
